X:284
T:Recovery, The
R:polka 48
S:John Clare (1793-1864)
O:Northampton MS. 12 Deacon 48
Z:P J Headford
Z:P Headford
M:4/4
L:1/8
Q:1/4=140
K:D
|:A2d2 A2d2|edef e4|a2g2 e2c2|dcde f4|
A2d2 A2d2|edef e4|a2g2 e2c2|d4 d4:|
|:a2g2 e2c2|d2f2 A4|G2F2 GFGA|G4 F2z2|
a2g2 e2c2|d2f2 A4|G2FG AGFE|D4 z4:|
|:f2ff f2f2|f6 g2|f2e2 d2c2|dcde f4|
e2ee e2e2|e6 f2|e2d2 c2B2|A4 z4:|]

